X:263
T: Die Brombeeren (29a),
N: T0152
O: Luxemburg
S: Singendes Volk, Esch-Alzette 1937 posth.]
N: Luxemburg, hhh Lorang Aschenberger, 1928
R: Liebeslieder]
M: 4/4
L: 1/8
K: G
D2 | G2G2F2E2 | E2D2D2
D2 | E2G2F2A2 | G4z2
GG | B2GGB2d2 | d2c2A2z2
D2G2A2ee | d2dcB2
d2 | d2c2E2F2 | G4z2
GG | B2GGB2d2 | d2c2A2z2
D2G2A2ee | d2dcB2
d2 | d2c2E2F2 | G4z2

